X: 18625
T: I Wish I Never Saw You
R: reel
M: 4/4
K: Gmajor
|:(3Bcd|edBA G2GA|BAGB AEE2|G2GE DEGz|AGdB A2 (3Bcd|
edBA G2GA|BAGB AEE2|G2GE DEGz|dBAd BG:|
|:GB|d2dc BG (3Bcd|e2 af gfec|d2dc BG (3Bcd|(3efg fa g2ge|
d2dc BG (3Bcd|e2af gfef|d3g e3g|fgaf g2:|

